img/whatsapp-icon.svg

<svg width="31" height="31" viewBox="0 0 31 31" fill="none" xmlns="http://www.w3.org/2000/svg">
<path fill-rule="evenodd" clip-rule="evenodd" d="M15.0918 30.9539C23.3761 30.9539 30.0918 24.2381 30.0918 15.9539C30.0918 7.66959 23.3761 0.953857 15.0918 0.953857C6.80753 0.953857 0.0917969 7.66959 0.0917969 15.9539C0.0917969 24.2381 6.80753 30.9539 15.0918 30.9539ZM15.0864 7.38329C17.3585 7.38401 19.4914 8.26901 21.0956 9.87472C22.6992 11.4797 23.5821 13.6147 23.5806 15.884C23.5785 20.5683 19.7671 24.379 15.0856 24.379H15.0821C13.6606 24.3783 12.2635 24.0219 11.0228 23.3447L6.51992 24.5261L7.72564 20.1247C6.98207 18.8361 6.59064 17.3747 6.59135 15.8776C6.59349 11.1933 10.4042 7.38329 15.0864 7.38329ZM17.5085 16.9654C17.7035 17.0361 18.7471 17.5497 18.9592 17.6561C19.0009 17.677 19.0398 17.6959 19.0758 17.7133C19.2235 17.7847 19.3232 17.833 19.3656 17.9047C19.4192 17.9926 19.4192 18.4183 19.2421 18.914C19.0649 19.4097 18.2171 19.8626 17.8092 19.9233C17.4435 19.9776 16.9806 20.0004 16.4721 19.839C16.1642 19.7411 15.7685 19.6104 15.2621 19.3919C13.271 18.5322 11.9257 16.6015 11.673 16.2388C11.6555 16.2137 11.6432 16.196 11.6364 16.1869L11.6338 16.1835C11.5192 16.0301 10.7699 15.0282 10.7699 13.9911C10.7699 13.0151 11.2491 12.5027 11.4704 12.2661C11.4859 12.2495 11.5001 12.2343 11.5128 12.2204C11.7071 12.0076 11.9371 11.9547 12.0785 11.9547C12.2206 11.9547 12.3621 11.9554 12.4856 11.9619C12.501 11.9626 12.5169 11.9625 12.5334 11.9624C12.6574 11.9615 12.8115 11.9605 12.9635 12.3261C13.0179 12.4572 13.0958 12.6472 13.1792 12.8504C13.3663 13.3062 13.5807 13.8287 13.6178 13.9019C13.6714 14.0083 13.7064 14.1326 13.6356 14.274C13.6246 14.296 13.6144 14.3166 13.6048 14.3363C13.5517 14.4443 13.5127 14.5237 13.4221 14.6276C13.3865 14.6691 13.3498 14.7139 13.3131 14.7586C13.2401 14.8476 13.1672 14.9365 13.1035 14.9997C12.9978 15.1054 12.8871 15.2197 13.0106 15.4326C13.1342 15.6454 13.5606 16.3404 14.1914 16.9033C14.8687 17.5078 15.4578 17.7634 15.757 17.8931C15.8159 17.9187 15.8636 17.9394 15.8985 17.9569C16.1106 18.0633 16.2349 18.0454 16.3585 17.904C16.4828 17.7619 16.8885 17.2833 17.0306 17.0711C17.1728 16.859 17.3142 16.8947 17.5085 16.9654Z" fill="white"/>
</svg>

<svg width="31" height="31" viewBox="0 0 31 31" fill="none" xmlns="http://www.w3.org/2000/svg"><path fill-rule="evenodd" clip-rule="evenodd" d="M15.092 30.954c8.284 0 15-6.716 15-15 0-8.284-6.716-15-15-15-8.284 0-15 6.716-15 15 0 8.284 6.716 15 15 15zm-.006-23.57a8.44 8.44 0 016.01 2.49 8.44 8.44 0 012.485 6.01c-.003 4.684-3.814 8.495-8.495 8.495h-.004a8.485 8.485 0 01-4.06-1.034L6.52 24.526l1.206-4.401a8.48 8.48 0 01-1.135-4.247c.002-4.685 3.813-8.495 8.495-8.495zm2.423 9.581c.194.071 1.238.585 1.45.691l.117.057c.148.072.247.12.29.192.053.088.053.513-.124 1.009-.177.496-1.025.949-1.433 1.01a2.918 2.918 0 01-1.337-.085 12.303 12.303 0 01-1.21-.447c-1.991-.86-3.336-2.79-3.589-3.153l-.037-.052-.002-.004c-.115-.153-.864-1.155-.864-2.192 0-.976.48-1.488.7-1.725l.043-.046a.778.778 0 01.566-.265c.142 0 .283 0 .407.007h.047c.124 0 .279-.002.43.364l.216.524c.187.456.402.979.439 1.052.053.106.088.23.018.372a6.825 6.825 0 00-.031.062c-.053.108-.092.188-.183.292-.036.041-.072.086-.109.13a3.13 3.13 0 01-.21.242c-.105.105-.216.22-.092.433.123.212.55.907 1.18 1.47.678.605 1.267.86 1.566.99.059.026.107.046.142.064.212.106.336.088.46-.053.124-.142.53-.62.672-.833.142-.212.283-.176.478-.106z" fill="#fff"/></svg>
